packages/token-projects/images/lp_aurora_usn.svg

<svg width="715" height="716" xmlns="http://www.w3.org/2000/svg" xml:space="preserve" overflow="hidden"><defs><clipPath id="a"><path d="M190 926h715v716H190z"/></clipPath><clipPath id="c"><path d="M380 1052h329v287H380z"/></clipPath><clipPath id="d"><path d="M380 1052h329v287H380z"/></clipPath><clipPath id="e"><path d="M380 1052h329v287H380z"/></clipPath><clipPath id="f"><path d="M579 1409h132v131H579z"/></clipPath><clipPath id="g"><path d="M579 1409h132v131H579z"/></clipPath><clipPath id="h"><path d="M579 1409h132v131H579z"/></clipPath><clipPath id="i"><path d="M386 1409h135v135H386z"/></clipPath><clipPath id="j"><path d="M386 1409h135v135H386z"/></clipPath><clipPath id="k"><path d="M386 1409h135v135H386z"/></clipPath><linearGradient x1="26.943" y1="356.948" x2="688.284" y2="356.948" gradientUnits="userSpaceOnUse" spreadMethod="pad" id="b"><stop offset="0" stop-color="#008EF0"/><stop offset=".001" stop-color="#008EF0"/><stop offset="1" stop-color="#7FFDFF"/></linearGradient></defs><g clip-path="url(#a)" transform="translate(-190 -926)"><path d="M591.437 123.125c-62.456-62.456-145.489-96.856-233.818-96.856-88.329 0-171.375 34.4-233.831 96.856-62.457 62.457-96.843 145.503-96.843 233.819s34.4 171.362 96.843 233.818c62.443 62.457 145.489 96.856 233.818 96.856 88.329 0 171.362-34.399 233.818-96.856 62.457-62.456 96.856-145.489 96.856-233.818 0-88.329-34.386-171.362-96.843-233.819Z" fill="url(#b)" transform="matrix(1 0 0 1.0014 190 926)"/><path d="M547.619 1641.444c-95.492 0-185.264-37.232-252.792-104.854-67.528-67.623-104.708-157.52-104.708-253.146 0-95.626 37.18-185.525 104.708-253.146 67.528-67.623 157.3-104.855 252.792-104.855 95.492 0 185.265 37.232 252.792 104.855 67.528 67.621 104.708 157.52 104.708 253.146 0 95.625-37.18 185.523-104.708 253.146-67.527 67.622-157.3 104.854-252.792 104.854Zm0-689.124c-88.329 0-171.362 34.447-233.818 96.991-62.457 62.544-96.856 145.693-96.856 234.133s34.4 171.602 96.843 234.145c62.443 62.545 145.489 96.992 233.818 96.992 88.329 0 171.362-34.447 233.818-96.992 62.457-62.543 96.856-145.693 96.856-234.145 0-88.453-34.399-171.602-96.856-234.146-62.456-62.544-145.489-96.978-233.805-96.978Z" fill="#FFF"/><g clip-path="url(#c)"><g clip-path="url(#d)"><g clip-path="url(#e)"><path d="M621.594 1337.964a78.652 78.652 0 0 1-31.634-6.625c-20.453-8.974-36.175-26.294-43.124-47.511l-2.656-8.113-2.657 8.113c-6.95 21.217-22.671 38.537-43.123 47.526-20.453 8.974-43.84 8.828-64.175-.409l-28.627-13.001A41.926 41.926 0 0 1 381 1279.772v-105.207c0-7.851 5.65-14.563 13.387-15.891 45.167-7.792 96.962-11.921 149.793-11.921 17.27 0 34.422.437 51.268 1.298 17.868.92 31.387 16.547 29.84 34.379-26.19-2.262-53.474-3.415-81.108-3.415-45.853 0-90.787 3.196-130.918 9.281v91.49a9.687 9.687 0 0 0 5.679 8.814l27.372 12.447c12.277 5.574 26.466 6.274 38.846.919 12.364-5.355 21.488-15.351 25.678-28.133l5.415-16.547c3.942-12.053 14.95-20.808 27.636-20.91 12.904-.117 23.867 7.762 27.868 19.99l5.298 16.168c4.205 12.812 13.27 23.712 25.576 29.213 12.307 5.501 25.869 5.457 38.117-.117l28.627-13.001a9.687 9.687 0 0 0 5.678-8.813V1053h32.278v226.743a41.926 41.926 0 0 1-24.598 38.172l-28.628 13.001c-10.277 4.699-21.386 7.048-32.51 7.048Z" fill="#FFF"/></g></g></g><g clip-path="url(#f)"><g clip-path="url(#g)"><g clip-path="url(#h)"><path d="M645.5 1409c36.174 0 65.5 29.33 65.5 65.5s-29.326 65.5-65.5 65.5c-36.175 0-65.5-29.33-65.5-65.5s29.325-65.5 65.5-65.5Z"/><path d="M631.155 1445.75c-1.443-1.93-4.013-2.74-6.362-2.01-2.349.73-3.942 2.83-3.942 5.21v10.95h-13.272v10.95h13.272v7.3h-13.272v10.95h13.272v16.43h11.376v-39.61l27.618 36.91c1.443 1.92 4.013 2.74 6.362 2.01 2.349-.73 3.942-2.84 3.942-5.21v-10.53h13.272v-10.95h-13.272v-7.3h13.272v-10.95h-13.272v-16.43h-11.377v39.19l-27.617-36.91Z" fill="#FFF"/></g></g></g><g clip-path="url(#i)"><g clip-path="url(#j)"><g clip-path="url(#k)"><path d="M453 1409c36.99 0 67 30.01 67 67 0 36.99-30.01 67-67 67-36.99 0-67-30.01-67-67 0-36.99 30.01-67 67-67Z" fill="#70D44B"/><path d="M453 1436.36c3.536 0 6.747 2 8.329 5.16l26.148 52.35c2.28 4.6.419 10.19-4.187 12.47a9.197 9.197 0 0 1-4.141.97h-52.298c-5.118 0-9.305-4.18-9.305-9.3 0-1.44.326-2.89.977-4.14l26.149-52.35c1.582-3.21 4.792-5.21 8.328-5.16m0-6.42a15.657 15.657 0 0 0-14.051 8.7l-26.149 52.34a15.727 15.727 0 0 0 7.026 21.08c2.187 1.07 4.606 1.67 7.025 1.67h52.344c8.654 0 15.727-7.02 15.727-15.68 0-2.42-.559-4.83-1.675-7.02l-26.196-52.39a15.657 15.657 0 0 0-14.051-8.7Z" fill="#FFF"/></g></g></g></g></svg>

<svg width="715" height="716" xmlns="http://www.w3.org/2000/svg" xmlns:xlink="http://www.w3.org/1999/xlink" xml:space="preserve" overflow="hidden"><defs><clipPath id="clip0"><rect x="190" y="926" width="715" height="716"/></clipPath><linearGradient x1="26.9431" y1="356.948" x2="688.284" y2="356.948" gradientUnits="userSpaceOnUse" spreadMethod="pad" id="fill1"><stop offset="0" stop-color="#008EF0"/><stop offset="0.00127816" stop-color="#008EF0"/><stop offset="1" stop-color="#7FFDFF"/></linearGradient><clipPath id="clip2"><rect x="380" y="1052" width="329" height="287"/></clipPath><clipPath id="clip3"><rect x="380" y="1052" width="329" height="287"/></clipPath><clipPath id="clip4"><rect x="380" y="1052" width="329" height="287"/></clipPath><clipPath id="clip5"><rect x="579" y="1409" width="132" height="131"/></clipPath><clipPath id="clip6"><rect x="579" y="1409" width="132" height="131"/></clipPath><clipPath id="clip7"><rect x="579" y="1409" width="132" height="131"/></clipPath><clipPath id="clip8"><rect x="386" y="1409" width="135" height="135"/></clipPath><clipPath id="clip9"><rect x="386" y="1409" width="135" height="135"/></clipPath><clipPath id="clip10"><rect x="386" y="1409" width="135" height="135"/></clipPath></defs><g clip-path="url(#clip0)" transform="translate(-190 -926)"><path d="M591.437 123.125C528.981 60.6688 445.948 26.2694 357.619 26.2694 269.29 26.2694 186.244 60.6688 123.788 123.125 61.3311 185.582 26.9449 268.628 26.9449 356.944 26.9449 445.26 61.3444 528.306 123.788 590.762 186.231 653.219 269.277 687.618 357.606 687.618 445.935 687.618 528.968 653.219 591.424 590.762 653.881 528.306 688.28 445.273 688.28 356.944 688.28 268.615 653.894 185.582 591.437 123.125Z" fill="url(#fill1)" transform="matrix(1 0 0 1.0014 190 926)"/><path d="M357.619 714.444C262.127 714.444 172.355 677.264 104.827 609.736 37.2992 542.208 0.119121 452.436 0.119121 356.944 0.119121 261.452 37.2992 171.679 104.827 104.152 172.355 36.624 262.127-0.556008 357.619-0.556008 453.111-0.556008 542.884 36.624 610.411 104.152 677.939 171.679 715.119 261.452 715.119 356.944 715.119 452.436 677.939 542.208 610.411 609.736 542.884 677.264 453.111 714.444 357.619 714.444ZM357.619 26.283C269.29 26.283 186.257 60.6824 123.801 123.139 61.3444 185.595 26.9449 268.628 26.9449 356.944 26.9449 445.26 61.3444 528.306 123.788 590.762 186.231 653.219 269.277 687.618 357.606 687.618 445.935 687.618 528.968 653.219 591.424 590.762 653.881 528.306 688.28 445.273 688.28 356.944 688.28 268.615 653.881 185.582 591.424 123.126 528.968 60.6692 445.935 26.283 357.619 26.283Z" fill="#FFFFFF" transform="matrix(1 0 0 1.0014 190 926)"/><g clip-path="url(#clip2)"><g clip-path="url(#clip3)"><g clip-path="url(#clip4)"><path d="M240.488 284.964C229.705 284.964 218.936 282.761 208.868 278.339 188.424 269.365 172.709 252.045 165.763 230.828L163.108 222.715 160.452 230.828C153.506 252.045 137.791 269.365 117.348 278.354 96.9044 287.328 73.5283 287.182 53.2018 277.945L24.5872 264.944C9.61601 258.144 0 243.217 0 226.772L0 121.565C0 113.714 5.64704 107.002 13.3807 105.674 58.5279 97.882 110.3 93.7526 163.108 93.7526 180.37 93.7526 197.515 94.1903 214.354 95.0512 232.214 95.9705 245.727 111.598 244.18 129.43 218.002 127.168 190.73 126.015 163.108 126.015 117.275 126.015 72.3609 129.211 32.248 135.296L32.248 226.786C32.248 230.58 34.4659 234.024 37.9242 235.6L65.2839 248.047C77.5556 253.621 91.7389 254.321 104.113 248.966 116.472 243.611 125.592 233.615 129.78 220.833L135.193 204.286C139.133 192.233 150.135 183.478 162.816 183.376 175.715 183.259 186.673 191.138 190.672 203.366L195.968 219.534C200.171 232.346 209.232 243.246 221.533 248.747 233.834 254.248 247.39 254.204 259.633 248.63L288.247 235.629C291.705 234.053 293.923 230.609 293.923 226.816L293.923 0 326.186 0 326.186 226.743C326.186 243.188 316.57 258.115 301.599 264.915L272.984 277.916C262.711 282.615 251.607 284.964 240.488 284.964Z" fill="#FFFFFF" transform="matrix(1.00044 0 0 1 381 1053)"/></g></g></g><g clip-path="url(#clip5)"><g clip-path="url(#clip6)"><g clip-path="url(#clip7)"><path d="M645.5 1409C681.674 1409 711 1438.33 711 1474.5L711 1474.5C711 1510.67 681.674 1540 645.5 1540L645.5 1540C609.325 1540 580 1510.67 580 1474.5L580 1474.5C580 1438.33 609.325 1409 645.5 1409Z"/><path d="M631.155 1445.75C629.712 1443.82 627.142 1443.01 624.793 1443.74 622.444 1444.47 620.851 1446.57 620.851 1448.95L620.851 1459.9 607.579 1459.9 607.579 1470.85 620.851 1470.85 620.851 1478.15 607.579 1478.15 607.579 1489.1 620.851 1489.1 620.851 1505.53 632.227 1505.53 632.227 1465.92 659.845 1502.83C661.288 1504.75 663.858 1505.57 666.207 1504.84 668.556 1504.11 670.149 1502 670.149 1499.63L670.149 1489.1 683.421 1489.1 683.421 1478.15 670.149 1478.15 670.149 1470.85 683.421 1470.85 683.421 1459.9 670.149 1459.9 670.149 1443.47 658.772 1443.47 658.772 1482.66 631.155 1445.75Z" fill="#FFFFFF"/></g></g></g><g clip-path="url(#clip8)"><g clip-path="url(#clip9)"><g clip-path="url(#clip10)"><path d="M453 1409 453 1409C489.99 1409 520 1439.01 520 1476L520 1476C520 1512.99 489.99 1543 453 1543L453 1543C416.01 1543 386 1512.99 386 1476L386 1476C386 1439.01 416.01 1409 453 1409Z" fill="#70D44B"/><path d="M453 1436.36C456.536 1436.36 459.747 1438.36 461.329 1441.52L487.477 1493.87C489.757 1498.47 487.896 1504.06 483.29 1506.34 481.987 1506.99 480.591 1507.31 479.149 1507.31L426.851 1507.31C421.733 1507.31 417.546 1503.13 417.546 1498.01 417.546 1496.57 417.872 1495.12 418.523 1493.87L444.672 1441.52C446.254 1438.31 449.464 1436.31 453 1436.36M453 1429.94C447.044 1429.94 441.601 1433.29 438.949 1438.64L412.8 1490.98C408.938 1498.75 412.056 1508.15 419.826 1512.06 422.013 1513.13 424.432 1513.73 426.851 1513.73L479.195 1513.73C487.849 1513.73 494.922 1506.71 494.922 1498.05 494.922 1495.63 494.363 1493.22 493.247 1491.03L467.051 1438.64C464.399 1433.29 458.956 1429.94 453 1429.94Z" fill="#FFFFFF"/></g></g></g></g></svg>
